X: 20358
T: John Carty's
R: reel
M: 4/4
K: Dmajor
BFAF ~E3 G|FDAD FA ~A2|BFAF ~E3 d|c2 BA BE ~E2:|
d2 fd e2 fd|e2 fe dBBA|d2 fd e3 f|dBAF FE ~E2|
d2 fd ~e3 f|g2 fg edBd|gbaf egfe|dBAF FE ~E2||

